X: 39858
T: This Is My Love, Do You Like Her?
R: jig
M: 6/8
K: Gmajor
|:G/F/|EFE EDE|G3G2 B|ABA AGA|~d3 ~e3|
dBA GAB|ABA DEF|GFE FED|E3E2:|
|:d|e2 e edB|~d3 dBd|e2 e edB|~d3 g2 e|
dBG GAB|ABA DEF|GFE FED|E3E2:|

